contributed-vectors/moonrise_icon_pack.svg

<?xml version="1.0" encoding="UTF-8" standalone="no"?>
<svg
   xmlns:dc="http://purl.org/dc/elements/1.1/"
   xmlns:cc="http://creativecommons.org/ns#"
   xmlns:rdf="http://www.w3.org/1999/02/22-rdf-syntax-ns#"
   xmlns:svg="http://www.w3.org/2000/svg"
   xmlns="http://www.w3.org/2000/svg"
   xmlns:sodipodi="http://sodipodi.sourceforge.net/DTD/sodipodi-0.dtd"
   xmlns:inkscape="http://www.inkscape.org/namespaces/inkscape"
   viewBox="0 0 192 192"
   version="1.1"
   id="svg16"
   sodipodi:docname="moonrise_icon_pack.svg"
   inkscape:version="0.92.4 (5da689c313, 2019-01-14)">
  <metadata
     id="metadata20">
    <rdf:RDF>
      <cc:Work
         rdf:about="">
        <dc:format>image/svg+xml</dc:format>
        <dc:type
           rdf:resource="http://purl.org/dc/dcmitype/StillImage" />
        <dc:title></dc:title>
      </cc:Work>
    </rdf:RDF>
  </metadata>
  <sodipodi:namedview
     pagecolor="#ffffff"
     bordercolor="#666666"
     borderopacity="1"
     objecttolerance="10"
     gridtolerance="10"
     guidetolerance="10"
     inkscape:pageopacity="0"
     inkscape:pageshadow="2"
     inkscape:window-width="1920"
     inkscape:window-height="1017"
     id="namedview18"
     showgrid="true"
     inkscape:zoom="3.4766083"
     inkscape:cx="68.954368"
     inkscape:cy="105.18043"
     inkscape:window-x="-8"
     inkscape:window-y="-8"
     inkscape:window-maximized="1"
     inkscape:current-layer="svg16">
    <inkscape:grid
       type="xygrid"
       id="grid827"
       spacingx="4"
       spacingy="4" />
  </sodipodi:namedview>
  <defs
     id="defs4">
    <style
       id="style2">.a{fill:none;stroke:#b1b5bd;stroke-linecap:round;stroke-linejoin:round;isolation:isolate;opacity:0.63;}</style>
  </defs>
  <path
     style="fill:#56595b;stroke:none;opacity:1"
     d="M 96 8 A 88 88 0 0 0 8 96 A 88 88 0 0 0 27.378906 151.05664 L 164.58984 151.00391 A 88 88 0 0 0 184 96 A 88 88 0 0 0 96 8 z "
     id="circle8" />
  <path
     style="fill:#71a372;stroke:none;stroke-width:1px;stroke-linecap:butt;stroke-linejoin:miter;stroke-opacity:1"
     d="M 144 116 L 104.27734 183.5293 A 88 88 0 0 0 144 169.72461 L 144 116 z "
     id="path835-6-9-3" />
  <path
     style="fill:#98dc9a;stroke:none;stroke-width:1px;stroke-linecap:butt;stroke-linejoin:miter;stroke-opacity:1"
     d="M 144 116 L 144 169.72461 A 88 88 0 0 0 164.58984 151.00391 L 144 116 z "
     id="path835-6-96" />
  <rect
     style="opacity:1;vector-effect:none;fill:#83868c;fill-opacity:1;fill-rule:evenodd;stroke:none;paint-order:stroke fill markers"
     id="rect887"
     width="96"
     height="96"
     x="48"
     y="20"
     ry="48" />
  <rect
     style="opacity:1;vector-effect:none;fill:#ececec;fill-opacity:1;fill-rule:evenodd;stroke:none;paint-order:stroke fill markers"
     id="rect885"
     width="72"
     height="72"
     x="60"
     y="32"
     ry="36" />
  <path
     style="fill:#71a372;stroke:none;stroke-width:1px;stroke-linecap:butt;stroke-linejoin:miter;stroke-opacity:1"
     d="M 96 96 L 88 140 L 96 184 A 88 88 0 0 0 138.0957 173.17578 L 96 96 z "
     id="path818-2" />
  <path
     style="fill:#71a372;stroke:none;stroke-width:1px;stroke-linecap:butt;stroke-linejoin:miter;stroke-opacity:1"
     d="M 48 116 L 48 169.66406 A 88 88 0 0 0 87.757812 183.58789 L 48 116 z "
     id="path835-6-9" />
  <path
     style="fill:#98dc9a;stroke:none;stroke-width:1px;stroke-linecap:butt;stroke-linejoin:miter;stroke-opacity:1"
     d="M 96 96 L 53.863281 173.25195 A 88 88 0 0 0 96 184 L 96 96 z "
     id="path818" />
  <path
     style="fill:#98dc9a;stroke:none;stroke-width:1px;stroke-linecap:butt;stroke-linejoin:miter;stroke-opacity:1"
     d="M 48 116 L 27.378906 151.05664 A 88 88 0 0 0 48 169.66406 L 48 116 z "
     id="path835-6" />
  <rect
     style="opacity:1;vector-effect:none;fill:#d8d8d8;fill-opacity:1;fill-rule:evenodd;stroke:none;paint-order:stroke fill markers"
     id="rect940"
     width="20"
     height="20"
     x="72"
     y="48"
     ry="10" />
  <rect
     style="opacity:1;vector-effect:none;fill:#d8d8d8;fill-opacity:1;fill-rule:evenodd;stroke:none;paint-order:stroke fill markers"
     id="rect944"
     width="12"
     height="12"
     x="100"
     y="48"
     ry="6" />
</svg>

<svg xmlns="http://www.w3.org/2000/svg" id="svg16" version="1.1" viewBox="0 0 192 192"><defs id="defs4"><style id="style2">.a{fill:none;stroke:#b1b5bd;stroke-linecap:round;stroke-linejoin:round;isolation:isolate;opacity:.63}</style></defs><path id="circle8" d="M96 8A88 88 0 0 0 8 96a88 88 0 0 0 19.379 55.057l137.21-.053A88 88 0 0 0 184 96 88 88 0 0 0 96 8z" style="fill:#56595b;stroke:none;opacity:1"/><path id="path835-6-9-3" d="m144 116-39.723 67.53A88 88 0 0 0 144 169.724V116z" style="fill:#71a372;stroke:none;stroke-width:1px;stroke-linecap:butt;stroke-linejoin:miter;stroke-opacity:1"/><path id="path835-6-96" d="M144 116v53.725a88 88 0 0 0 20.59-18.721L144 116z" style="fill:#98dc9a;stroke:none;stroke-width:1px;stroke-linecap:butt;stroke-linejoin:miter;stroke-opacity:1"/><rect id="rect887" width="96" height="96" x="48" y="20" ry="48" style="opacity:1;vector-effect:none;fill:#83868c;fill-opacity:1;fill-rule:evenodd;stroke:none;paint-order:stroke fill markers"/><rect id="rect885" width="72" height="72" x="60" y="32" ry="36" style="opacity:1;vector-effect:none;fill:#ececec;fill-opacity:1;fill-rule:evenodd;stroke:none;paint-order:stroke fill markers"/><path id="path818-2" d="m96 96-8 44 8 44a88 88 0 0 0 42.096-10.824L96 96z" style="fill:#71a372;stroke:none;stroke-width:1px;stroke-linecap:butt;stroke-linejoin:miter;stroke-opacity:1"/><path id="path835-6-9" d="M48 116v53.664a88 88 0 0 0 39.758 13.924L48 116z" style="fill:#71a372;stroke:none;stroke-width:1px;stroke-linecap:butt;stroke-linejoin:miter;stroke-opacity:1"/><path id="path818" d="m96 96-42.137 77.252A88 88 0 0 0 96 184V96z" style="fill:#98dc9a;stroke:none;stroke-width:1px;stroke-linecap:butt;stroke-linejoin:miter;stroke-opacity:1"/><path id="path835-6" d="m48 116-20.621 35.057A88 88 0 0 0 48 169.664V116z" style="fill:#98dc9a;stroke:none;stroke-width:1px;stroke-linecap:butt;stroke-linejoin:miter;stroke-opacity:1"/><rect id="rect940" width="20" height="20" x="72" y="48" ry="10" style="opacity:1;vector-effect:none;fill:#d8d8d8;fill-opacity:1;fill-rule:evenodd;stroke:none;paint-order:stroke fill markers"/><rect id="rect944" width="12" height="12" x="100" y="48" ry="6" style="opacity:1;vector-effect:none;fill:#d8d8d8;fill-opacity:1;fill-rule:evenodd;stroke:none;paint-order:stroke fill markers"/></svg>
